static/img/feathers-logo-horizontal.svg

<svg height="217" viewBox="0 0 838 217" width="838" xmlns="http://www.w3.org/2000/svg"><g fill="none" fill-rule="evenodd" transform="translate(0 .92)"><path d="m.43 0h837v216h-837z"/><g fill-rule="nonzero"><path d="m11.4200177 92.866078v-39.4053358h30.8716962v-9.2866078h-30.8716962v-29.4912545h38.0248941v-9.2866078h-49.4449118v87.4698059zm81.571555 1.1294523c8.1989873 0 15.0593643-2.0706626 20.5811313-6.2119877 5.521766-4.1413251 9.202944-9.5166814 11.043533-16.1260689h-12.29848c-1.338611 3.8485041-3.660263 6.9231243-6.964956 9.2238604-3.304694 2.3007362-7.4251034 3.4511043-12.3612283 3.4511043-6.0237456 0-11.1481125-1.9033363-15.3731007-5.7100089-4.2249883-3.8066725-6.5466402-9.0983657-6.9649559-15.8750795h54.9666789c.250989-2.4262309.376484-4.726967.376484-6.9022085 0-6.274735-1.359526-11.9010807-4.078578-16.8790372-2.719052-4.9779564-6.588472-8.8892079-11.60826-11.7337544s-10.7925439-4.2668198-17.3182683-4.2668198c-6.6930507 0-12.6122173 1.443189-17.7575 4.3295671s-9.1401974 7.0067875-11.9847439 12.361228-4.2668198 11.587344-4.2668198 18.6987103 1.4641048 13.3651855 4.3923145 18.7614576 6.9649559 9.558513 12.1102386 12.4867227 10.9807862 4.3923145 17.5065106 4.3923145zm21.2086043-40.5347881h-43.4211662c.5856419-6.5257244 2.9072939-11.6291755 6.9649559-15.3103534 4.0576619-3.6811779 8.972871-5.5217668 14.7456272-5.5217668 4.0158304 0 7.6760921.8157155 10.9807861 2.4471466s5.919167 4.0158304 7.843419 7.1531979 2.886378 6.8812928 2.886378 11.2317757zm55.092173 40.5347881c5.940083 0 11.148113-1.3176944 15.62409-3.9530831 4.475978-2.6353887 7.843419-5.9609982 10.102324-9.9768286v12.8004594h11.545512v-68.7710956h-11.545512v12.54947c-2.175242-3.9321673-5.479935-7.1950295-9.914082-9.7885866-4.434146-2.5935571-9.663091-3.8903357-15.686837-3.8903357-6.107409 0-11.650091 1.4641048-16.628048 4.3923145-4.977956 2.9282097-8.889208 7.048619-11.733754 12.3612279-2.844547 5.312609-4.26682 11.4827651-4.26682 18.5104683 0 6.9440401 1.422273 13.1351119 4.26682 18.5732156 2.844546 5.4381037 6.734882 9.6630919 11.671007 12.6749647s10.457892 4.5178092 16.5653 4.5178092zm2.3844-10.039576c-4.26682 0-8.157156-1.0248734-11.671007-3.0746202-3.513852-2.0497467-6.316567-5.019788-8.408145-8.9101237-2.091579-3.8903357-3.137368-8.4708922-3.137368-13.7416696 0-5.1871143 1.045789-9.7049235 3.137368-13.5534276 2.091578-3.8485041 4.894293-6.7767138 8.408145-8.784629 3.513851-2.0079152 7.404187-3.0118728 11.671007-3.0118728 4.266819 0 8.178071 1.0248734 11.733754 3.0746202 3.555683 2.0497467 6.379314 4.9988722 8.470892 8.8473763 2.091579 3.8485041 3.137368 8.3663133 3.137368 13.5534276s-1.045789 9.7258392-3.137368 13.6161749c-2.091578 3.8903357-4.915209 6.860377-8.470892 8.9101237-3.555683 2.0497468-7.466935 3.0746202-11.733754 3.0746202zm86.089364 8.9101237v-9.6630919h-8.408145c-3.513852 0-5.981914-.6902209-7.404187-2.0706626-1.422274-1.3804417-2.13341-3.7439252-2.13341-7.0904505v-40.5347881h17.945742v-9.4121025h-17.945742v-17.3182686h-11.420018v17.3182686h-8.910124v9.4121025h8.910124v40.5347881c0 6.6930507 1.5896 11.5036808 4.768799 14.4318905s7.947997 4.3923145 14.306395 4.3923145zm25.224435 0v-38.0248941c0-7.1950295 1.777841-12.6749647 5.333524-16.4398057s8.345398-5.6472615 14.369143-5.6472615c5.940083 0 10.625218 1.8196731 14.055407 5.4590194 3.430188 3.6393463 5.145283 8.889208 5.145283 15.7495849v38.903357h11.294523v-40.5347881c0-6.3583981-1.1922-11.7546702-3.576599-16.1888163-2.3844-4.4341461-5.668178-7.7597556-9.851334-9.9768286-4.183157-2.2170731-8.868293-3.3256096-14.055407-3.3256096-4.936125 0-9.391187.962126-13.365185 2.8863781-3.973999 1.9242521-7.090451 4.6433039-9.349355 8.1571555v-33.883569h-11.420018v92.866078zm98.638834 1.1294523c8.198987 0 15.059364-2.0706626 20.58113-6.2119877 5.521767-4.1413251 9.202945-9.5166814 11.043534-16.1260689h-12.29848c-1.338611 3.8485041-3.660263 6.9231243-6.964956 9.2238604-3.304694 2.3007362-7.425103 3.4511043-12.361228 3.4511043-6.023746 0-11.148113-1.9033363-15.373101-5.7100089-4.224988-3.8066725-6.54664-9.0983657-6.964956-15.8750795h54.966679c.250989-2.4262309.376484-4.726967.376484-6.9022085 0-6.274735-1.359526-11.9010807-4.078578-16.8790372-2.719052-4.9779564-6.588472-8.8892079-11.60826-11.7337544s-10.792544-4.2668198-17.318268-4.2668198c-6.693051 0-12.612218 1.443189-17.7575 4.3295671-5.145283 2.8863781-9.140198 7.0067875-11.984744 12.361228-2.844547 5.3544405-4.26682 11.587344-4.26682 18.6987103s1.464105 13.3651855 4.392314 18.7614576c2.92821 5.3962721 6.964956 9.558513 12.110239 12.4867227s10.980786 4.3923145 17.506511 4.3923145zm21.208604-40.5347881h-43.421166c.585642-6.5257244 2.907294-11.6291755 6.964956-15.3103534s8.972871-5.5217668 14.745627-5.5217668c4.01583 0 7.676092.8157155 10.980786 2.4471466s5.919167 4.0158304 7.843419 7.1531979 2.886378 6.8812928 2.886378 11.2317757zm38.275884 39.4053358v-37.3974206c0-13.8880801 6.400229-20.8321202 19.200689-20.8321202h3.011872v-11.7965018c-5.35444 0-9.893165 1.0876207-13.616175 3.2628622-3.723009 2.1752415-6.588471 5.2289458-8.596386 9.1611131v-11.1690283h-11.420018v68.7710956zm59.735477 1.1294523c4.936125 0 9.307523-.8575471 13.114196-2.5726414 3.806672-1.7150942 6.755798-4.0785777 8.847376-7.0904505 2.091579-3.0118728 3.137368-6.4002297 3.137368-10.1650707-.083663-4.1831567-1.234032-7.5715136-3.451105-10.1650707s-4.873377-4.538725-7.968913-5.8355035c-3.095536-1.2967786-7.111366-2.614473-12.047491-3.9530831-3.932167-1.0876207-7.006788-2.0706626-9.223861-2.9491255s-4.057662-2.0497467-5.521766-3.5138516c-1.464105-1.4641048-2.196158-3.3256095-2.196158-5.5845141 0-2.8445465 1.213116-5.1452827 3.639347-6.9022085 2.42623-1.7569258 5.689093-2.6353887 9.788586-2.6353887 4.434146 0 7.968914 1.0876207 10.604302 3.2628622 2.635389 2.1752415 4.078578 5.0616196 4.329567 8.6591343h11.420018c-.334652-6.6930507-2.844546-11.9638281-7.529682-15.8123322-4.685135-3.8485041-10.834376-5.7727562-18.447721-5.7727562-4.936125 0-9.328439.8575471-13.176943 2.5726413-3.848504 1.7150943-6.818546 4.0367462-8.910124 6.9649559s-3.137367 6.1492403-3.137367 9.6630919c0 4.4341461 1.150368 8.010745 3.451104 10.7297968 2.300736 2.7190519 5.061619 4.7687986 8.28265 6.1492403s7.383272 2.7399677 12.486723 4.0785778c5.60543 1.4222733 9.746755 2.8654623 12.423975 4.3295671 2.67722 1.4641049 4.01583 3.7020937 4.01583 6.7139665 0 2.9282097-1.254947 5.3544405-3.764841 7.2786926s-5.940082 2.8863781-10.290565 2.8863781c-4.685135 0-8.470892-1.0876207-11.35727-3.2628622s-4.496894-4.9779564-4.831546-8.4081449h-11.796502c.250989 4.1831567 1.589599 7.8852503 4.01583 11.1062809 2.426231 3.2210307 5.730925 5.7309247 9.914082 7.529682 4.183156 1.7987574 8.910123 2.6981361 14.180901 2.6981361z" fill="#3a3a3a" transform="translate(273.715092 58.894922)"/><path d="m107.78 7.74c55.29 0 100.12 44.82 100.12 100.12s-44.83 100.12-100.12 100.12-100.12-44.82-100.12-100.12 44.83-100.12 100.12-100.12m0-7.66c-59.43 0-107.78 48.35-107.78 107.78s48.35 107.78 107.78 107.78 107.78-48.35 107.78-107.78-48.35-107.78-107.78-107.78m17.54 21.49c-8.78-1.6-30.02 30.66-37.04 50.3-.53 1.49-1.76 6.95-1.76 8.38 0 0 5.5 11.83 7.03 14.61-2.55-1.33-7.85-11.58-7.85-11.58-2.55 4.87-5 27.23-4.21 31.38 0 0 5.69 8.47 7.9 10.59-3.03-1.01-8.14-7.88-8.14-7.88-.96 2.95-.77 9.1-.32 11.18 3.83 5.59 8.94 6.23 8.94 6.23s-5.59 55.73 2.87 59.88c5.27-1.12 6.55-62.27 6.55-62.27s6.39.48 7.82-1.12c3.25-2.24 10.8-25.45 10.91-28.8 0 0-8.77 1.64-13.04 3.3 3.22-3.2 13.51-5.35 13.51-5.35 2.79-3.35 8.67-26.14 9.26-33.17.15-1.76.49-3.92.23-7.07 0 0-8.37 1.83-10.12 1.2 1.77-.2 10.33-3.49 10.33-3.49 1.52-13.64 1.99-35.43-2.87-36.32zm-30.63 144.57c-.67 16.42-1.09 21.05-1.78 24.92-.32.72-.64.84-.96-.08-2.93-13.47-2.71-114.88 30.66-161.03-19.41 35.45-28.24 103.46-27.92 136.19z" fill="#3a3a4a"/></g></g></svg>

<?xml version="1.0" encoding="UTF-8"?>
<svg width="838px" height="217px" viewBox="0 0 838 217" version="1.1" xmlns="http://www.w3.org/2000/svg" xmlns:xlink="http://www.w3.org/1999/xlink">
    <title>feathers-logo-horizontal</title>
    <g id="Page-1" stroke="none" stroke-width="1" fill="none" fill-rule="evenodd">
        <g id="feathers-logo-horizontal" transform="translate(0.000000, 0.920000)">
            <rect id="Rectangle" x="0.43" y="0" width="837" height="216"></rect>
            <g id="lettering" transform="translate(273.715092, 58.894922)" fill="#3A3A3A" fill-rule="nonzero">
                <path d="M11.4200177,92.866078 L11.4200177,53.4607422 L42.2917139,53.4607422 L42.2917139,44.1741344 L11.4200177,44.1741344 L11.4200177,14.6828799 L49.4449118,14.6828799 L49.4449118,5.3962721 L5.68434189e-14,5.3962721 L5.68434189e-14,92.866078 L11.4200177,92.866078 Z M92.9915727,93.9955303 C101.19056,93.9955303 108.050937,91.9248677 113.572704,87.7835426 C119.09447,83.6422175 122.775648,78.2668612 124.616237,71.6574737 L124.616237,71.6574737 L112.317757,71.6574737 C110.979146,75.5059778 108.657494,78.580598 105.352801,80.8813341 C102.048107,83.1820703 97.9276976,84.3324384 92.9915727,84.3324384 C86.9678271,84.3324384 81.8434602,82.4291021 77.618472,78.6224295 C73.3934837,74.815757 71.0718318,69.5240638 70.6535161,62.74735 L70.6535161,62.74735 L125.620195,62.74735 C125.871184,60.3211191 125.996679,58.020383 125.996679,55.8451415 C125.996679,49.5704065 124.637153,43.9440608 121.918101,38.9661043 C119.199049,33.9881479 115.329629,30.0768964 110.309841,27.2323499 C105.290053,24.3878034 99.5172971,22.9655301 92.9915727,22.9655301 C86.298522,22.9655301 80.3793554,24.4087191 75.2340727,27.2950972 C70.08879,30.1814753 66.0938753,34.3018847 63.2493288,39.6563252 C60.4047823,45.0107657 58.982509,51.2436692 58.982509,58.3550355 C58.982509,65.4664018 60.4466138,71.720221 63.3748235,77.1164931 C66.3030332,82.5127652 70.3397794,86.6750061 75.4850621,89.6032158 C80.6303448,92.5314255 86.4658483,93.9955303 92.9915727,93.9955303 Z M114.200177,53.4607422 L70.7790108,53.4607422 C71.3646527,46.9350178 73.6863047,41.8315667 77.7439667,38.1503888 C81.8016286,34.4692109 86.7168377,32.628622 92.4895939,32.628622 C96.5054243,32.628622 100.165686,33.4443375 103.47038,35.0757686 C106.775074,36.7071997 109.389547,39.091599 111.313799,42.2289665 C113.238051,45.366334 114.200177,49.1102593 114.200177,53.4607422 L114.200177,53.4607422 Z M169.29235,93.9955303 C175.232433,93.9955303 180.440463,92.6778359 184.91644,90.0424472 C189.392418,87.4070585 192.759859,84.081449 195.018764,80.0656186 L195.018764,80.0656186 L195.018764,92.866078 L206.564276,92.866078 L206.564276,24.0949824 L195.018764,24.0949824 L195.018764,36.6444524 C192.843522,32.7122851 189.538829,29.4494229 185.104682,26.8558658 C180.670536,24.2623087 175.441591,22.9655301 169.417845,22.9655301 C163.310436,22.9655301 157.767754,24.4296349 152.789797,27.3578446 C147.811841,30.2860543 143.900589,34.4064636 141.056043,39.7190725 C138.211496,45.0316815 136.789223,51.2018376 136.789223,58.2295408 C136.789223,65.1735809 138.211496,71.3646527 141.056043,76.8027564 C143.900589,82.2408601 147.790925,86.4658483 152.72705,89.4777211 C157.663175,92.4895939 163.184942,93.9955303 169.29235,93.9955303 Z M171.67675,83.9559543 C167.40993,83.9559543 163.519594,82.9310809 160.005743,80.8813341 C156.491891,78.8315874 153.689176,75.8615461 151.597598,71.9712104 C149.506019,68.0808747 148.46023,63.5003182 148.46023,58.2295408 C148.46023,53.0424265 149.506019,48.5246173 151.597598,44.6761132 C153.689176,40.8276091 156.491891,37.8993994 160.005743,35.8914842 C163.519594,33.883569 167.40993,32.8796114 171.67675,32.8796114 C175.943569,32.8796114 179.854821,33.9044848 183.410504,35.9542316 C186.966187,38.0039783 189.789818,40.9531038 191.881396,44.8016079 C193.972975,48.650112 195.018764,53.1679212 195.018764,58.3550355 C195.018764,63.5421498 193.972975,68.0808747 191.881396,71.9712104 C189.789818,75.8615461 186.966187,78.8315874 183.410504,80.8813341 C179.854821,82.9310809 175.943569,83.9559543 171.67675,83.9559543 Z M257.766114,92.866078 L257.766114,83.2029861 L249.357969,83.2029861 C245.844117,83.2029861 243.376055,82.5127652 241.953782,81.1323235 C240.531508,79.7518818 239.820372,77.3883983 239.820372,74.041873 L239.820372,74.041873 L239.820372,33.5070849 L257.766114,33.5070849 L257.766114,24.0949824 L239.820372,24.0949824 L239.820372,6.7767138 L228.400354,6.7767138 L228.400354,24.0949824 L219.49023,24.0949824 L219.49023,33.5070849 L228.400354,33.5070849 L228.400354,74.041873 C228.400354,80.7349237 229.989954,85.5455538 233.169153,88.4737635 C236.348352,91.4019732 241.11715,92.866078 247.475548,92.866078 L247.475548,92.866078 L257.766114,92.866078 Z M282.990549,92.866078 L282.990549,54.8411839 C282.990549,47.6461544 284.76839,42.1662192 288.324073,38.4013782 C291.879756,34.6365372 296.669471,32.7541167 302.693216,32.7541167 C308.633299,32.7541167 313.318434,34.5737898 316.748623,38.2131361 C320.178811,41.8524824 321.893906,47.1023441 321.893906,53.962721 L321.893906,53.962721 L321.893906,92.866078 L333.188429,92.866078 L333.188429,52.3312899 C333.188429,45.9728918 331.996229,40.5766197 329.61183,36.1424736 C327.22743,31.7083275 323.943652,28.382718 319.760496,26.165645 C315.577339,23.9485719 310.892203,22.8400354 305.705089,22.8400354 C300.768964,22.8400354 296.313902,23.8021614 292.339904,25.7264135 C288.365905,27.6506656 285.249453,30.3697174 282.990549,33.883569 L282.990549,33.883569 L282.990549,0 L271.570531,0 L271.570531,92.866078 L282.990549,92.866078 Z M381.629383,93.9955303 C389.82837,93.9955303 396.688747,91.9248677 402.210513,87.7835426 C407.73228,83.6422175 411.413458,78.2668612 413.254047,71.6574737 L413.254047,71.6574737 L400.955567,71.6574737 C399.616956,75.5059778 397.295304,78.580598 393.990611,80.8813341 C390.685917,83.1820703 386.565508,84.3324384 381.629383,84.3324384 C375.605637,84.3324384 370.48127,82.4291021 366.256282,78.6224295 C362.031294,74.815757 359.709642,69.5240638 359.291326,62.74735 L359.291326,62.74735 L414.258005,62.74735 C414.508994,60.3211191 414.634489,58.020383 414.634489,55.8451415 C414.634489,49.5704065 413.274963,43.9440608 410.555911,38.9661043 C407.836859,33.9881479 403.967439,30.0768964 398.947651,27.2323499 C393.927863,24.3878034 388.155107,22.9655301 381.629383,22.9655301 C374.936332,22.9655301 369.017165,24.4087191 363.871883,27.2950972 C358.7266,30.1814753 354.731685,34.3018847 351.887139,39.6563252 C349.042592,45.0107657 347.620319,51.2436692 347.620319,58.3550355 C347.620319,65.4664018 349.084424,71.720221 352.012633,77.1164931 C354.940843,82.5127652 358.977589,86.6750061 364.122872,89.6032158 C369.268155,92.5314255 375.103658,93.9955303 381.629383,93.9955303 Z M402.837987,53.4607422 L359.416821,53.4607422 C360.002463,46.9350178 362.324115,41.8315667 366.381777,38.1503888 C370.439439,34.4692109 375.354648,32.628622 381.127404,32.628622 C385.143234,32.628622 388.803496,33.4443375 392.10819,35.0757686 C395.412884,36.7071997 398.027357,39.091599 399.951609,42.2289665 C401.875861,45.366334 402.837987,49.1102593 402.837987,53.4607422 L402.837987,53.4607422 Z M441.113871,92.866078 L441.113871,55.4686574 C441.113871,41.5805773 447.5141,34.6365372 460.31456,34.6365372 L460.31456,34.6365372 L463.326432,34.6365372 L463.326432,22.8400354 C457.971992,22.8400354 453.433267,23.9276561 449.710257,26.1028976 C445.987248,28.2781391 443.121786,31.3318434 441.113871,35.2640107 L441.113871,35.2640107 L441.113871,24.0949824 L429.693853,24.0949824 L429.693853,92.866078 L441.113871,92.866078 Z M500.849348,93.9955303 C505.785473,93.9955303 510.156871,93.1379832 513.963544,91.4228889 C517.770216,89.7077947 520.719342,87.3443112 522.81092,84.3324384 C524.902499,81.3205656 525.948288,77.9322087 525.948288,74.1673677 C525.864625,69.984211 524.714256,66.5958541 522.497183,64.002297 C520.28011,61.4087399 517.623806,59.463572 514.52827,58.1667935 C511.432734,56.8700149 507.416904,55.5523205 502.480779,54.2137104 C498.548612,53.1260897 495.473991,52.1430478 493.256918,51.2645849 C491.039845,50.386122 489.199256,49.2148382 487.735152,47.7507333 C486.271047,46.2866285 485.538994,44.4251238 485.538994,42.1662192 C485.538994,39.3216727 486.75211,37.0209365 489.178341,35.2640107 C491.604571,33.5070849 494.867434,32.628622 498.966927,32.628622 C503.401073,32.628622 506.935841,33.7162427 509.571229,35.8914842 C512.206618,38.0667257 513.649807,40.9531038 513.900796,44.5506185 L513.900796,44.5506185 L525.320814,44.5506185 C524.986162,37.8575678 522.476268,32.5867904 517.791132,28.7382863 C513.105997,24.8897822 506.956756,22.9655301 499.343411,22.9655301 C494.407286,22.9655301 490.014972,23.8230772 486.166468,25.5381714 C482.317964,27.2532657 479.347922,29.5749176 477.256344,32.5031273 C475.164766,35.431337 474.118977,38.6523676 474.118977,42.1662192 C474.118977,46.6003653 475.269345,50.1769642 477.570081,52.896016 C479.870817,55.6150679 482.6317,57.6648146 485.852731,59.0452563 C489.073762,60.425698 493.236003,61.785224 498.339454,63.1238341 C503.944884,64.5461074 508.086209,65.9892964 510.763429,67.4534012 C513.440649,68.9175061 514.779259,71.1554949 514.779259,74.1673677 C514.779259,77.0955774 513.524312,79.5218082 511.014418,81.4460603 C508.504524,83.3703124 505.074336,84.3324384 500.723853,84.3324384 C496.038718,84.3324384 492.252961,83.2448177 489.366583,81.0695762 C486.480205,78.8943347 484.869689,76.0916198 484.535037,72.6614313 L484.535037,72.6614313 L472.738535,72.6614313 C472.989524,76.844588 474.328134,80.5466816 476.754365,83.7677122 C479.180596,86.9887429 482.48529,89.4986369 486.668447,91.2973942 C490.851603,93.0961516 495.57857,93.9955303 500.849348,93.9955303 Z" id="Feathers"></path>
            </g>
            <path d="M107.78,7.74 C163.07,7.74 207.9,52.56 207.9,107.86 C207.9,163.16 163.07,207.98 107.78,207.98 C52.49,207.98 7.66,163.16 7.66,107.86 C7.66,52.56 52.49,7.74 107.78,7.74 M107.78,0.08 C48.35,0.08 0,48.43 0,107.86 C0,167.29 48.35,215.64 107.78,215.64 C167.21,215.64 215.56,167.29 215.56,107.86 C215.56,48.43 167.21,0.08 107.78,0.08 M125.32,21.57 C116.54,19.97 95.3,52.23 88.28,71.87 C87.75,73.36 86.52,78.82 86.52,80.25 C86.52,80.25 92.02,92.08 93.55,94.86 C91,93.53 85.7,83.28 85.7,83.28 C83.15,88.15 80.7,110.51 81.49,114.66 C81.49,114.66 87.18,123.13 89.39,125.25 C86.36,124.24 81.25,117.37 81.25,117.37 C80.29,120.32 80.48,126.47 80.93,128.55 C84.76,134.14 89.87,134.78 89.87,134.78 C89.87,134.78 84.28,190.51 92.74,194.66 C98.01,193.54 99.29,132.39 99.29,132.39 C99.29,132.39 105.68,132.87 107.11,131.27 C110.36,129.03 117.91,105.82 118.02,102.47 C118.02,102.47 109.25,104.11 104.98,105.77 C108.2,102.57 118.49,100.42 118.49,100.42 C121.28,97.07 127.16,74.28 127.75,67.25 C127.9,65.49 128.24,63.33 127.98,60.18 C127.98,60.18 119.61,62.01 117.86,61.38 C119.63,61.18 128.19,57.89 128.19,57.89 C129.71,44.25 130.18,22.46 125.32,21.57 L125.32,21.57 Z M94.69,166.14 C94.02,182.56 93.6,187.19 92.91,191.06 C92.59,191.78 92.27,191.9 91.95,190.98 C89.02,177.51 89.24,76.1 122.61,29.95 C103.2,65.4 94.37,133.41 94.69,166.14 L94.69,166.14 Z" id="isotype" fill="#3A3A4A" fill-rule="nonzero"></path>
        </g>
    </g>
</svg>
